Newaita-dark/apps/48/kapman.svg

<svg height="48pt" viewBox="0 0 48 48" width="48pt" xmlns="http://www.w3.org/2000/svg" xmlns:xlink="http://www.w3.org/1999/xlink"><linearGradient id="a"><stop offset="0" stop-opacity=".313725"/><stop offset=".222222" stop-opacity=".27451"/><stop offset="1" stop-opacity="0"/></linearGradient><radialGradient id="b" cx="450.908936" cy="189.579361" gradientTransform="matrix(.00000026 -.117199 -.210958 -.00000015 66.784728 95.392994)" gradientUnits="userSpaceOnUse" r="21.166656" xlink:href="#a"/><radialGradient id="c" cx="450.908936" cy="189.579361" gradientTransform="matrix(-.00000026 .117199 .210958 .00000015 -19.155178 -11.291223)" gradientUnits="userSpaceOnUse" r="21.166656" xlink:href="#a"/><radialGradient id="d" cx="450.908936" cy="189.579361" gradientTransform="matrix(-.00000026 -.117199 .210958 -.00000015 -19.155178 95.392994)" gradientUnits="userSpaceOnUse" r="21.166656" xlink:href="#a"/><radialGradient id="e" cx="450.908936" cy="189.579361" gradientTransform="matrix(.00000026 .117199 -.210958 .00000015 66.784725 -11.291224)" gradientUnits="userSpaceOnUse" r="21.166656" xlink:href="#a"/><linearGradient id="f" gradientTransform="matrix(.0200401 0 0 .093759 18.698079 20.158175)" gradientUnits="userSpaceOnUse" x1="255.323059" x2="255.323044" y1="233.5" y2="254.666656"><stop offset="0" stop-opacity=".27451"/><stop offset="1" stop-opacity="0"/></linearGradient><linearGradient id="g" gradientUnits="userSpaceOnUse" x1="24.80706884357" x2="24.80706884357" y1="4.3441560001" y2="42.0508995"><stop offset="0" stop-color="#ffb74d"/><stop offset="1" stop-color="#ffa726"/></linearGradient><linearGradient id="h" gradientUnits="userSpaceOnUse" x1="106.59265599194" x2="151.00490935861" y1="-273.35047813175" y2="-228.93822379523"><stop offset="0" stop-color="#616161"/><stop offset="1" stop-color="#424242"/></linearGradient><path d="m27.289062 42.050781h3.96875v-1.984375h-3.96875zm0 0" fill="url(#b)"/><path d="m20.339844 42.050781h-3.96875v1.984375h3.96875zm0 0" fill="url(#c)"/><path d="m20.339844 42.050781h-3.96875v-1.984375h3.96875zm0 0" fill="url(#d)"/><path d="m27.289062 42.050781h3.96875v1.984375h-3.96875zm0 0" fill="url(#e)"/><path d="m20.339844 41.554688h6.949218v2.480468h-6.949218zm0 0" fill="url(#f)"/><path d="m23.816406 4.34375c-10.445312 0-18.855468 8.410156-18.855468 18.855469 0 10.441406 8.410156 18.851562 18.855468 18.851562 6.289063 0 11.839844-3.046875 15.257813-7.753906l-15.257813-11.097656 15.257813-11.101563c-3.417969-4.703125-8.96875-7.753906-15.257813-7.753906zm0 0" fill="url(#g)"/><path d="m130.581546-280.149356c16.998402-.029458 30.785667 13.757808 30.785666 30.78567-.000001 17.027863-13.787268 30.815127-30.78567 30.785666-17.027862-.000001-30.815127-13.787267-30.785666-30.78567-.029459-16.998402 13.757808-30.785667 30.78567-30.785666zm0 0" fill="url(#h)" stroke="#212121" stroke-linecap="round" stroke-linejoin="round" stroke-width="3" transform="matrix(.0662976 .0662976 -.0662976 .0662976 0 20.158175)"/><path d="m23.816406 4.34375c-10.445312 0-18.855468 8.410156-18.855468 18.855469 0 .121093.003906.246093.003906.371093.199218-10.273437 8.53125-18.480468 18.851562-18.480468 6.070313 0 11.453125 2.839844 14.898438 7.273437l.359375-.265625c-3.417969-4.703125-8.96875-7.753906-15.257813-7.753906zm.511719 19.226562-.511719.371094 14.898438 10.835938c.121094-.160156.242187-.320313.359375-.480469zm0 0" fill="#fff" fill-opacity=".392157"/><path d="m23.816406 42.050781c-10.445312 0-18.855468-8.410156-18.855468-18.851562 0-.125.003906-.25.003906-.375.199218 10.273437 8.53125 18.484375 18.851562 18.484375 6.070313 0 11.453125-2.84375 14.898438-7.273438l.359375.261719c-3.417969 4.707031-8.96875 7.753906-15.257813 7.753906zm.511719-19.226562-.511719-.371094 14.898438-10.835937c.121094.160156.242187.320312.359375.480468zm0 0" fill-opacity=".235294"/><path d="m23.816406 4.203125c-10.523437 0-18.996094 8.472656-18.996094 18.996094 0 10.519531 8.472657 18.992187 18.996094 18.992187 6.332032 0 11.925782-3.070312 15.375-7.8125l.082032-.113281-15.21875-11.066406 15.21875-11.070313-.082032-.113281c-3.449218-4.742187-9.042968-7.8125-15.375-7.8125zm0 .28125c6.191406 0 11.660156 2.976563 15.0625 7.585937l-15.304687 11.128907 15.304687 11.128906c-3.402344 4.605469-8.871094 7.582031-15.0625 7.582031-10.371094 0-18.714844-8.34375-18.714844-18.710937 0-10.371094 8.34375-18.714844 18.714844-18.714844zm0 0" fill="#212121"/></svg>

<?xml version="1.0" encoding="UTF-8"?>
<svg xmlns="http://www.w3.org/2000/svg" xmlns:xlink="http://www.w3.org/1999/xlink" width="48pt" height="48pt" viewBox="0 0 48 48" version="1.1">
<defs>
<radialGradient id="radial0" gradientUnits="userSpaceOnUse" cx="450.908936" cy="189.579361" fx="450.908936" fy="189.579361" r="21.166656" gradientTransform="matrix(0.000000261256,-0.117199,-0.210958,-0.000000152308,66.784728,95.392994)">
<stop offset="0" style="stop-color:rgb(0%,0%,0%);stop-opacity:0.313725;"/>
<stop offset="0.222222" style="stop-color:rgb(0%,0%,0%);stop-opacity:0.27451;"/>
<stop offset="1" style="stop-color:rgb(0%,0%,0%);stop-opacity:0;"/>
</radialGradient>
<radialGradient id="radial1" gradientUnits="userSpaceOnUse" cx="450.908936" cy="189.579361" fx="450.908936" fy="189.579361" r="21.166656" gradientTransform="matrix(-0.000000261256,0.117199,0.210958,0.000000152308,-19.155178,-11.291223)">
<stop offset="0" style="stop-color:rgb(0%,0%,0%);stop-opacity:0.313725;"/>
<stop offset="0.222222" style="stop-color:rgb(0%,0%,0%);stop-opacity:0.27451;"/>
<stop offset="1" style="stop-color:rgb(0%,0%,0%);stop-opacity:0;"/>
</radialGradient>
<radialGradient id="radial2" gradientUnits="userSpaceOnUse" cx="450.908936" cy="189.579361" fx="450.908936" fy="189.579361" r="21.166656" gradientTransform="matrix(-0.000000261256,-0.117199,0.210958,-0.000000152308,-19.155178,95.392994)">
<stop offset="0" style="stop-color:rgb(0%,0%,0%);stop-opacity:0.313725;"/>
<stop offset="0.222222" style="stop-color:rgb(0%,0%,0%);stop-opacity:0.27451;"/>
<stop offset="1" style="stop-color:rgb(0%,0%,0%);stop-opacity:0;"/>
</radialGradient>
<radialGradient id="radial3" gradientUnits="userSpaceOnUse" cx="450.908936" cy="189.579361" fx="450.908936" fy="189.579361" r="21.166656" gradientTransform="matrix(0.000000261256,0.117199,-0.210958,0.000000152308,66.784725,-11.291224)">
<stop offset="0" style="stop-color:rgb(0%,0%,0%);stop-opacity:0.313725;"/>
<stop offset="0.222222" style="stop-color:rgb(0%,0%,0%);stop-opacity:0.27451;"/>
<stop offset="1" style="stop-color:rgb(0%,0%,0%);stop-opacity:0;"/>
</radialGradient>
<linearGradient id="linear0" gradientUnits="userSpaceOnUse" x1="255.323059" y1="233.5" x2="255.323044" y2="254.666656" gradientTransform="matrix(0.0200401,0,0,0.093759,18.698079,20.158175)">
<stop offset="0" style="stop-color:rgb(0%,0%,0%);stop-opacity:0.27451;"/>
<stop offset="1" style="stop-color:rgb(0%,0%,0%);stop-opacity:0;"/>
</linearGradient>
<linearGradient id="linear1" gradientUnits="userSpaceOnUse" x1="264.583313" y1="-168.666656" x2="264.583313" y2="233.5" gradientTransform="matrix(0.093759,0,0,0.093759,0.00000218771,20.158173)">
<stop offset="0" style="stop-color:rgb(100%,71.764706%,30.196078%);stop-opacity:1;"/>
<stop offset="1" style="stop-color:rgb(100%,65.490196%,14.901961%);stop-opacity:1;"/>
</linearGradient>
<linearGradient id="linear2" gradientUnits="userSpaceOnUse" x1="229.272812" y1="7.689433" x2="275.065155" y2="53.481777" gradientTransform="matrix(0.969862,-0.000000000000000056,0.000000000000000056,0.969862,-115.770332,-280.808167)">
<stop offset="0" style="stop-color:rgb(38.039216%,38.039216%,38.039216%);stop-opacity:1;"/>
<stop offset="1" style="stop-color:rgb(25.882353%,25.882353%,25.882353%);stop-opacity:1;"/>
</linearGradient>
</defs>
<g id="surface1">
<path style=" stroke:none;fill-rule:nonzero;fill:url(#radial0);" d="M 27.289062 42.050781 L 31.257812 42.050781 L 31.257812 40.066406 L 27.289062 40.066406 Z M 27.289062 42.050781 "/>
<path style=" stroke:none;fill-rule:nonzero;fill:url(#radial1);" d="M 20.339844 42.050781 L 16.371094 42.050781 L 16.371094 44.035156 L 20.339844 44.035156 Z M 20.339844 42.050781 "/>
<path style=" stroke:none;fill-rule:nonzero;fill:url(#radial2);" d="M 20.339844 42.050781 L 16.371094 42.050781 L 16.371094 40.066406 L 20.339844 40.066406 Z M 20.339844 42.050781 "/>
<path style=" stroke:none;fill-rule:nonzero;fill:url(#radial3);" d="M 27.289062 42.050781 L 31.257812 42.050781 L 31.257812 44.035156 L 27.289062 44.035156 Z M 27.289062 42.050781 "/>
<path style=" stroke:none;fill-rule:nonzero;fill:url(#linear0);" d="M 20.339844 41.554688 L 27.289062 41.554688 L 27.289062 44.035156 L 20.339844 44.035156 Z M 20.339844 41.554688 "/>
<path style=" stroke:none;fill-rule:nonzero;fill:url(#linear1);" d="M 23.816406 4.34375 C 13.371094 4.34375 4.960938 12.753906 4.960938 23.199219 C 4.960938 33.640625 13.371094 42.050781 23.816406 42.050781 C 30.105469 42.050781 35.65625 39.003906 39.074219 34.296875 L 23.816406 23.199219 L 39.074219 12.097656 C 35.65625 7.394531 30.105469 4.34375 23.816406 4.34375 Z M 23.816406 4.34375 "/>
<path style="fill-rule:nonzero;fill:url(#linear2);stroke-width:3;stroke-linecap:round;stroke-linejoin:round;stroke:rgb(12.941177%,12.941177%,12.941177%);stroke-opacity:1;stroke-miterlimit:4;" d="M 130.581546 -280.149356 C 147.579948 -280.178814 161.367213 -266.391548 161.367212 -249.363686 C 161.367211 -232.335823 147.579944 -218.548559 130.581542 -218.57802 C 113.55368 -218.578021 99.766415 -232.365287 99.795876 -249.36369 C 99.766417 -266.362092 113.553684 -280.149357 130.581546 -280.149356 Z M 130.581546 -280.149356 " transform="matrix(0.0662976,0.0662976,-0.0662976,0.0662976,0,20.158175)"/>
<path style=" stroke:none;fill-rule:nonzero;fill:rgb(100%,100%,100%);fill-opacity:0.392157;" d="M 23.816406 4.34375 C 13.371094 4.34375 4.960938 12.753906 4.960938 23.199219 C 4.960938 23.320312 4.964844 23.445312 4.964844 23.570312 C 5.164062 13.296875 13.496094 5.089844 23.816406 5.089844 C 29.886719 5.089844 35.269531 7.929688 38.714844 12.363281 L 39.074219 12.097656 C 35.65625 7.394531 30.105469 4.34375 23.816406 4.34375 Z M 24.328125 23.570312 L 23.816406 23.941406 L 38.714844 34.777344 C 38.835938 34.617188 38.957031 34.457031 39.074219 34.296875 Z M 24.328125 23.570312 "/>
<path style=" stroke:none;fill-rule:nonzero;fill:rgb(0%,0%,0%);fill-opacity:0.235294;" d="M 23.816406 42.050781 C 13.371094 42.050781 4.960938 33.640625 4.960938 23.199219 C 4.960938 23.074219 4.964844 22.949219 4.964844 22.824219 C 5.164062 33.097656 13.496094 41.308594 23.816406 41.308594 C 29.886719 41.308594 35.269531 38.464844 38.714844 34.035156 L 39.074219 34.296875 C 35.65625 39.003906 30.105469 42.050781 23.816406 42.050781 Z M 24.328125 22.824219 L 23.816406 22.453125 L 38.714844 11.617188 C 38.835938 11.777344 38.957031 11.9375 39.074219 12.097656 Z M 24.328125 22.824219 "/>
<path style=" stroke:none;fill-rule:nonzero;fill:rgb(12.941177%,12.941177%,12.941177%);fill-opacity:1;" d="M 23.816406 4.203125 C 13.292969 4.203125 4.820312 12.675781 4.820312 23.199219 C 4.820312 33.71875 13.292969 42.191406 23.816406 42.191406 C 30.148438 42.191406 35.742188 39.121094 39.191406 34.378906 L 39.273438 34.265625 L 24.054688 23.199219 L 39.273438 12.128906 L 39.191406 12.015625 C 35.742188 7.273438 30.148438 4.203125 23.816406 4.203125 Z M 23.816406 4.484375 C 30.007812 4.484375 35.476562 7.460938 38.878906 12.070312 L 23.574219 23.199219 L 38.878906 34.328125 C 35.476562 38.933594 30.007812 41.910156 23.816406 41.910156 C 13.445312 41.910156 5.101562 33.566406 5.101562 23.199219 C 5.101562 12.828125 13.445312 4.484375 23.816406 4.484375 Z M 23.816406 4.484375 "/>
</g>
</svg>
